images/breadcrumps/arrow-logo.svg

<svg width="8" height="11" viewBox="0 0 8 11" fill="none" xmlns="http://www.w3.org/2000/svg">
<path d="M6.91526 4.96875L2.16526 0.71875C1.91526 0.46875 1.41526 0.46875 1.04026 0.71875C0.665263 0.96875 0.790263 1.46875 1.04026 1.71875L5.16526 5.46875L1.16526 9.21875C0.915263 9.46875 0.915263 9.96875 1.16526 10.2188C1.16526 10.3438 1.54026 10.4687 1.66526 10.4687C1.79026 10.4687 2.04026 10.3438 2.16526 10.2188L6.91526 5.96875C7.29026 5.71875 7.29026 5.21875 6.91526 4.96875Z" fill="white"/>
</svg>

<svg xmlns="http://www.w3.org/2000/svg" width="8" height="11" fill="none"><path fill="#fff" d="M6.92 4.97 2.17.72c-.25-.25-.75-.25-1.13 0-.37.25-.25.75 0 1l4.13 3.75-4 3.75a.76.76 0 0 0 0 1c0 .12.37.25.5.25.12 0 .37-.13.5-.25l4.75-4.25a.59.59 0 0 0 0-1Z"/></svg>
